Catalina-dark/status/16/audio-volume-muted-blocking-panel.svg

<?xml version="1.0" encoding="UTF-8" standalone="no"?>
<!-- Created with Inkscape (http://www.inkscape.org/) -->

<svg
   xmlns:dc="http://purl.org/dc/elements/1.1/"
   xmlns:cc="http://creativecommons.org/ns#"
   xmlns:rdf="http://www.w3.org/1999/02/22-rdf-syntax-ns#"
   xmlns:svg="http://www.w3.org/2000/svg"
   xmlns="http://www.w3.org/2000/svg"
   xmlns:xlink="http://www.w3.org/1999/xlink"
   xmlns:sodipodi="http://sodipodi.sourceforge.net/DTD/sodipodi-0.dtd"
   xmlns:inkscape="http://www.inkscape.org/namespaces/inkscape"
   id="svg7384"
   style="enable-background:new"
   height="16"
   width="16"
   version="1.1"
   inkscape:version="0.92.4 5da689c313, 2019-01-14"
   sodipodi:docname="audio-volume-muted-blocking-panel.svg">
  <sodipodi:namedview
     pagecolor="#ffffff"
     bordercolor="#666666"
     borderopacity="1"
     objecttolerance="10"
     gridtolerance="10"
     guidetolerance="10"
     inkscape:pageopacity="0"
     inkscape:pageshadow="2"
     inkscape:window-width="1920"
     inkscape:window-height="1024"
     id="namedview10"
     showgrid="true"
     inkscape:zoom="20.85965"
     inkscape:cx="10.145679"
     inkscape:cy="7.6028323"
     inkscape:window-x="0"
     inkscape:window-y="30"
     inkscape:window-maximized="1"
     inkscape:current-layer="svg7384"
     showguides="true"
     inkscape:guide-bbox="true">
    <inkscape:grid
       type="xygrid"
       id="grid836" />
    <sodipodi:guide
       position="13.79661,8"
       orientation="1,0"
       id="guide850"
       inkscape:locked="false" />
    <sodipodi:guide
       position="14.881356,8"
       orientation="1,0"
       id="guide871"
       inkscape:locked="false" />
  </sodipodi:namedview>
  <metadata
     id="metadata90">
    <rdf:RDF>
      <cc:Work
         rdf:about="">
        <dc:format>image/svg+xml</dc:format>
        <dc:type
           rdf:resource="http://purl.org/dc/dcmitype/StillImage" />
        <dc:title>Paper Symbolic Icon Theme</dc:title>
      </cc:Work>
    </rdf:RDF>
  </metadata>
  <title
     id="title8473">Paper Symbolic Icon Theme</title>
  <defs
     id="defs7386">
    <filter
       id="filter7554"
       style="color-interpolation-filters:sRGB">
      <feBlend
         id="feBlend7556"
         in2="BackgroundImage"
         mode="darken" />
    </filter>
    <linearGradient
       gradientTransform="translate(-1,-2)"
       gradientUnits="userSpaceOnUse"
       xlink:href="#linearGradient3678"
       id="linearGradient2868"
       y2="19"
       x2="8.9254236"
       y1="5.9997859"
       x1="8.9254236" />
    <linearGradient
       id="linearGradient3678">
      <stop
         offset="0"
         style="stop-color:#ffffff;stop-opacity:1"
         id="stop3680" />
      <stop
         offset="1"
         style="stop-color:#e6e6e6;stop-opacity:1"
         id="stop3682" />
    </linearGradient>
    <linearGradient
       gradientTransform="translate(-2,-1)"
       gradientUnits="userSpaceOnUse"
       xlink:href="#linearGradient3678"
       id="linearGradient2393"
       y2="21"
       x2="9"
       y1="3"
       x1="9" />
    <linearGradient
       x1="14"
       y1="3"
       x2="14"
       y2="21"
       id="linearGradient2398"
       xlink:href="#linearGradient3587-6-5-3"
       gradientUnits="userSpaceOnUse"
       gradientTransform="translate(-1.0001235,-5)" />
    <linearGradient
       id="linearGradient3587-6-5-3">
      <stop
         id="stop3589-9-2-0"
         style="stop-color:#000000;stop-opacity:1"
         offset="0" />
      <stop
         id="stop3591-7-4-7"
         style="stop-color:#363636;stop-opacity:1"
         offset="1" />
    </linearGradient>
    <linearGradient
       x1="66.09668"
       y1="9.3638258"
       x2="66.09668"
       y2="27.363825"
       id="linearGradient2395"
       xlink:href="#linearGradient3587-6-5-3"
       gradientUnits="userSpaceOnUse"
       gradientTransform="translate(-52.096803,-11.363826)" />
    <linearGradient
       x1="4.9554448"
       y1="2.6841583"
       x2="4.9554448"
       y2="13.496136"
       id="linearGradient7390"
       xlink:href="#linearGradient3587-6-5-3"
       gradientUnits="userSpaceOnUse" />
    <linearGradient
       x1="7.9109159"
       y1="4.5762329"
       x2="7.9109159"
       y2="11.649005"
       id="linearGradient7392"
       xlink:href="#linearGradient3587-6-5-3"
       gradientUnits="userSpaceOnUse" />
    <linearGradient
       x1="10.186814"
       y1="2.7742527"
       x2="10.186814"
       y2="13.317288"
       id="linearGradient7394"
       xlink:href="#linearGradient3587-6-5-3"
       gradientUnits="userSpaceOnUse" />
    <linearGradient
       x1="13.917011"
       y1="0.88217813"
       x2="13.917011"
       y2="15.183488"
       id="linearGradient7396"
       xlink:href="#linearGradient3587-6-5-3"
       gradientUnits="userSpaceOnUse" />
    <linearGradient
       id="linearGradient5263">
      <stop
         id="stop5265"
         style="stop-color:#a0d5ff;stop-opacity:1"
         offset="0" />
      <stop
         id="stop5267"
         style="stop-color:#a0d5ff;stop-opacity:1"
         offset="1" />
    </linearGradient>
    <filter
       style="color-interpolation-filters:sRGB"
       id="filter7554-0">
      <feBlend
         mode="darken"
         in2="BackgroundImage"
         id="feBlend7556-9" />
    </filter>
    <mask
       id="m">
      <rect
         id="rect7"
         style="fill:white"
         height="16"
         width="16"
         y="0"
         x="0" />
      <text
         id="text9"
         style="font-weight:500;font-size:9px;line-height:0%;font-family:'Open Sans';fill:#000000"
         y="11.5"
         x="2.5">Ak</text>
    </mask>
  </defs>
  <rect
     style="opacity:0;fill:#000000;fill-opacity:0;stroke:none;stroke-width:0.1;stroke-linecap:round;stroke-linejoin:round;stroke-miterlimit:4;stroke-dasharray:none;stroke-dashoffset:0;stroke-opacity:1;paint-order:fill markers stroke"
     id="rect863"
     width="24"
     height="24"
     x="0"
     y="-8" />
  <path
     style="fill:#202020;stroke:none;stroke-width:1px;stroke-linecap:butt;stroke-linejoin:miter;stroke-opacity:1;fill-opacity:0.39215687"
     d="M 2,6 H 5 L 8,3 V 13 L 5,10 H 2 C 1,10 1,10 1,9 V 7 C 1,6 1,6 2,6 Z"
     id="path844"
     inkscape:connector-curvature="0"
     sodipodi:nodetypes="ccccccccc" />
  <path
     style="fill:#202020;fill-opacity:0.39215687;stroke:none;stroke-width:1px;stroke-linecap:butt;stroke-linejoin:miter;stroke-opacity:1"
     d="M 9,11 C 11,9 11,7 9,5 V 4 c 3,2 3,6 0,8 z"
     id="path846"
     inkscape:connector-curvature="0"
     sodipodi:nodetypes="ccccc" />
  <path
     style="fill:#202020;fill-opacity:0.39215687;stroke:none;stroke-width:1px;stroke-linecap:butt;stroke-linejoin:miter;stroke-opacity:1"
     d="m 11,3 c 2.79661,3.6271186 2.79661,6.4067797 0,10 v 1 c 3.881356,-3.855932 3.881356,-8.1456251 0,-12 z"
     id="path848"
     inkscape:connector-curvature="0"
     sodipodi:nodetypes="ccccc" />
</svg>

<svg width="16" height="16" enable-background="new" version="1.1" xmlns="http://www.w3.org/2000/svg">
<rect y="-8" width="24" height="24" opacity="0" stroke-width=".1" style="paint-order:fill markers stroke"/>
<path d="m2 6h3l3-3v10l-3-3h-3c-1 0-1 0-1-1v-2c0-1 0-1 1-1z" fill="#202020" fill-opacity=".39216"/>
<path d="m9 11c2-2 2-4 0-6v-1c3 2 3 6 0 8z" fill="#202020" fill-opacity=".39216"/>
<path d="m11 3c2.7966 3.6271 2.7966 6.4068 0 10v1c3.8814-3.8559 3.8814-8.1456 0-12z" fill="#202020" fill-opacity=".39216"/>
</svg>
